X:1
T:Hoyda, hoyda, jolly rutterkin
T:attributed to William Cornish (14?? - 1523)
T:Poem possibly by John Skelton (1460-1529)
T:Hoyda, hoyda, jolly rutterkin
T:expired
T:expired
T:expired
T:expired
T:expired
T:expired
T:expired
T:expired
T:expired
T:expired
C:attributed to William Cornish (14?? - 1523)
Z:Poem possibly by
Z:John Skelton (1460-1529)
Z:expired
%%score [ 1 2 3 ]
L:1/8
M:4/4
K:C
V:1 alto transpose=-12 nm="P1"
V:2 alto transpose=-12 nm="P2"
V:3 bass nm="P3"
V:1
"^Alto orTenor" x8 |[M:4/2][K:treble-8] c4 A8 F4 | c8 c2 c2 d2 d2 | c4 B4 c4 B4 | c4 e4 f4 g4- | %5
w: |Hoy- da, hoy-|da jol- ly Rut- ter-|kin, hoy- da, hoy-|da like a Rut-|
 g2 g2 e4 a4 g4 | z16 ||[M:3/4]S"^Refrain" e3 f g2 | a2 (_ba gf) | (g3 f) e2 | f2 (gf ed) | c6 | %12
w: * ter- kin, hoy- da.||Hoy- da, hoy-|da, hoy- * * *|da, _ hoy-|day hoy- * * *|da,|
 z6 | g2 g2 e2 | g4 e2 | f2 f2 e2 | d4 d2 | c4 z2 | c2 c4 | d4 c2 | B4 G2 |[M:4/2] c8 z8 | %22
w: |hoy- da, hoy-|da, like|a Rut- te-|kin hoy-|da,|like a|Rut- ter-|kin hoy-|da,|
 g8 a4 (g2 f2) | (e2 c2) f4 a4 g4- | g2 f2 (f6 ed e4) |S"^End of refrain" f16 || z16 | z16 | %28
w: hoy- da, hoy _|day, _ hoy- da, hoy|_ da, hoy- * * *|da.|||
 z8 a6 a2 | a4 g4 f8 | d4 d4 e8 |[M:3/4] z6 | z6 | a3 (g f2 | e2) e2 e2 |[M:4/2] f8 c4 c4 | c8 e8 | %37
w: In a|cloak with- out|coat or gown,|||to co- *|* ver his|crown, Like a|Rutt- kin|
 c4 A8 F4 | c8 c2 c2 d2 d2 | c4 B4 c4 B4 | c4 e4 f4 g4- | g2 g2 e4 a4 g4 |"^Repeat refrain" z16 || %43
w: Hoy- da, Hoy-|da jol- ly Rut- ter-|kin, hoy- da, hoy-|da like a Rut-|* ter- kin, hoy- da.||
 c6 d2 e4 f4 | g4 a4 (g2 fg f2 g2) | e8 z4 c4 | f4 f2 f2 f4 f4 | g4 e4 f8- | f4 f4 c8 | z8 z4 g4 | %50
w: Rut- ter- kin can|speak no Eng- * * * *|lish, his|tongue run- neth all on|but- tered fish,|_ bes- meared|with|
 a6 f2 g4 f4- | f2 ed e4 f8 | c4 c4 c8 | e8 c4 A4- | A4 F4 c8 | c2 c2 d2 d2 c4 B4 | c4 B4 c4 e4 | %57
w: grease a- bout his|_ _ _ _ dish|like a Rutt-|kin hoy- da,|_ hoy- da,|jol- ly Rut- ter- kin hoy-|day, hoy- da, like|
 f4 g6 g2 e4 | a4 g4"^Repeat refrain" z8 || z16 | z16 | z16 |[M:3/4] z4 g2 | g4 g2 | g4 g2 | %65
w: a Rut- ter- kin|hoy- da.||||A|stoup of|beer up|
 g4 g2 | g3 e f2 | g2 c4 | A4 B2 |[M:4/2] c8 e4 e4 | a8 g4 f4 | e8 c4 c4 | d4 B2 B2 c6 de | %73
w: at a|pluck, at a|pluck, up|at a|pluck, till his|brain be as|wise as a|duck, as a duck, _ _|
 f6 d2 e2 c2 d2 A2 | c2 BA G4 z4 g4 | f6 g2 e8 | c4 c4 c8 | e8 c4 A4- | A4 F4 c8 | %79
w: _ _ _ _ _ _|* * * * a|duck, a duck,|like a Rutt-|kin hoy- da,|_ hoy- da,|
 c2 c2 d2 d2 c4 B4 | c4 B4 c4 e4 | f4 g6 g2 e4 | a4 g4"^Repeat refrain" z8 || z16 | z16 | z16 | %86
w: jol- ly Rut- ter- kin hoy-|da hoy- da, like|a Rut- ter- kin|hoy- da.||||
 f6 e2 f4 e4 | f4 e4 f8 | d4 e4 f8 |[M:3/4] z6 | z6 | z6 | c4 c2 | d4 _B2 | A6 | d3 d d2 | c4 A2 | %97
w: He will piss a|gal- lon pot|full at twice,||||and the|o- ver|plus|un- der the|ta- ble|
 _BB c4 |[M:4/2] A8 c4 c4 | c8 e8 | c4 A8 F4 | c8 c2 c2 d2 d2 | c4 B4 c4 B4 | c4 e4 f4 g4- | %104
w: of the new|guise, like a|Rutt- kin|hoy- da, hoy-|da, jol- ly Rut- ter-|kin hoy- da, hoy-|da, like a Rut-|
 g2 g2 e4 a4 g4 |"^Repeat refrain" z16 |] %106
w: * ter- kin hoy- da.||
V:2
"^Alto orTenor" x8 |[M:4/2][K:treble-8] z8 c4 A4- | A4 F4 c4 z4 | c2 c2 f2 f2 e4 d4 | %4
w: |Hoy- da,|_ hoy- da|jol- ly Rut- ter- kin, hoy-|
 c2 A2 c4 z4 c4- | c2 c2 c2 c2 c4 G4 | c16 ||[M:3/4] z6 | z6 | e3 f g2 | a2 (_ba gf) | e3 f g2 | %12
w: da, hoy- da like|_ a Rut- ter- kin hoy-|da.|||Hoy- da, hoy-|da, hoy- * * *|da, hoy- da,|
 f2 (gf ed) | e6 | c6 | z6 | z6 | g2 g2 e2 | g4 e2 | f2 f2 e2 | d4 d2 |[M:4/2] e6 f2 g4 a4 | %22
w: hoy- da, _ _ _|hoy-|da,|||hoy- da, hoy-|da like|a Rut- ter-|kin hoy-|da, hoy- da, hoy-|
 e4 g4 f6 (ed) | c4 d4 c8 | _B4 A4 G8 | F16 || f6 e2 d4 c4 | _B4 A4 G4 G4 | F4 z4 c6 c2 | %29
w: da, hoy- day, hoy- *|da, hoy- da,|hoy- da, hoy-|da.|Rut- ter- kin is|come un- to our|town, In a|
 c4 c4 d8 | B4 B4 c8 |[M:3/4] c4 c2 | d4 e2 | f4 c2 | _B2 B2 G2 |[M:4/2] A8 z4 G4 | A4 F4 c8 | %37
w: cloak with- out|coat or gown,|Save a|rag- ged|hood to|co- ver his|crown, Like|a Rutt- kin|
 z8 c4 A4- | A4 F4 c4 z4 | c2 c2 f2 f2 e4 d4 | c2 A2 c4 z4 c4- | c2 c2 c2 c2 c4 G4 | c16 || %43
w: Hoy- da,|_ Hoy- da|jol- ly Rut- ter- kin, hoy-|da, hoy- da like|_ a Rut- ter- kin hoy-|da.|
 c6 B2 c4 d4 | e4 c4 (B2 cB c2 B2) | c8 z8 | z16 | z8 A8 | d8 c4 A4- | A4 A4 _B4 c4- | %50
w: Rut- ter- kin can|speak no Eng- * * * *|lish,||bes-|meared with grease|_ a- bout his|
 c4 d4 c6 (_BA) | G8 F8 | z4 G4 A4 F4 | c8 z8 | c4 A8 F4 | c4 z4 c2 c2 f2 f2 | e4 d4 c2 G2 c4 | %57
w: _ dish, a- bout _|his dish,|like a Rutt-|kin|hoy- da, hoy-|da, jol- ly Rut- ter-|kin hoy- da, hoy- da,|
 z4 c6 c2 c2 c2 | c4 G4 c8 || c12 G4 | A4 B4 c6 B2 | c4 d4 (B6 AG |[M:3/4] c4) e2 | e4 e2 | d4 d2 | %65
w: like a Rut- ter-|kin hoy- da.|Rut- ter-|kin shall bring you|all good luck, _ _|_ A|stoup of|beer up|
 e4 d2 | e3 d c2 | g2 (f2 g2) | (a3 g) f2 |[M:4/2] e8 z8 | z16 | z16 | z8 e4 e4 | a8 g4 f4 | %74
w: at a|pluck, at a|pluck, up _|at _ a|pluck,|||till his|brain be as|
 e8 c4 c4 | A4 B4 c8 | z4 G4 A4 F4 | c8 z8 | c4 A8 F4 | c4 z4 c2 c2 f2 f2 | e4 d4 c2 G2 c4 | %81
w: wise as a|duck, a duck,|like a Rutt-|kin|hoy- da, hoy-|day, jol- ly Rut- ter-|kin hoy- da, hoy- da,|
 z4 c6 c2 c2 c2 | c4 G4 c8 || z4 F4 A4 _B4 | c4 d4 c4 A4 | (G8 F8) | c6 c2 c4 c4 | c4 c4 c8 | %88
w: like a Rut- ter-|kin hoy- da.|When Rut- ter-|kin from board will|rise _|he will piss a|gal- lon pot|
 _B4 G4 A8 |[M:3/4] c4 c2 | _B4 G2 | A6 | z6 | z6 | f2 f2 f2 | f4 g2 | a2 _ba gf | e2 f2 e2 | %98
w: full at twice,|and the|o- ver-|plus|||of the new|guise, _|of _ _ _ _|the _ new|
[M:4/2] f8 z4 G4 | A4 F4 c8 | z8 c4 A4- | A4 F4 c4 z4 | c2 c2 f2 f2 e4 d4 | c2 G2 c4 z4 c4- | %104
w: guise, like|a Rutt- kin|hoy- da,|_ hoy- da,|jol- ly Rut- ter- kin hoy-|da, hoy- da, like|
 c2 c2 c2 c2 c4 G4 | c16 |] %106
w: _ a Rut- ter- kin hoy-|da.|
V:3
"^Bass" x8 |[M:4/2] F,4 F,8 F,4 | F,8 C,2 C,2 F,2 F,2 | E,4 D,4 C,4 G,4 | A,8 F,4 E,4 | %5
w: |Hoy- da, hoy-|da jol- ly Rut- ter-|kin, hoy- da, hoy-|da like a|
 C,6 C,2 F,4 E,4 | C,16 ||[M:3/4] C,3 D, E,2 | F,2 (G,F, E,D,) | C,6 | z6 | C3 D E2 | D4 G,2 | %13
w: Rut- ter- kin hoy-|da.|Hoy- da, hoy-|da, hoy- * * *|day,||Hoy- da, hoy-|da, hoy-|
 C4 C2 | C4 C2 | D2 D2 C2 | B,4 G,2 | C4 z2 | C,4 E,2 | D,2 _B,,2 C,2 | G,6 | %21
w: da, hoy-|da, like|a Rut- ter-|kin hoy-|da,|like a|Rut- ter- kin|hoy-|
[M:4/2] C,6 D,2 E,4 F,4 | C,8 F,6 G,2 | A,4 _B,4 F,4 C,4 | D,4 F,4 C,8 | F,16 || F,6 F,2 F,4 F,4 | %27
w: da, hoy- da, hoy-|da, hoy- da,|hoy- da, hoy- da,|hoy- da, hoy-|da.|Rut- ter- kin is|
 F,4 F,4 G,4 C,4 | F,8 F,6 F,2 | F,4 E,4 D,8 | G,4 G,4 C,8 |[M:3/4] F,4 A,2 | _B,4 G,2 | F,4 A,2 | %34
w: come un- to our|town, In a|cloak with- out|coat or gown,|Save a|rag- ged|hood to|
 G,2 G,2 G,2 |[M:4/2] F,8 E,4 E,4 | F,4 F,4 C,8 | F,4 F,8 F,4 | F,8 C,2 C,2 F,2 F,2 | %39
w: co- ver his|crown, Like a|Rut- te- kin|Hoy- da, Hoy-|dy jol- ly Rut- ter-|
 E,4 D,4 C,4 G,4 | A,8 F,4 E,4 | C,6 C,2 F,4 E,4 | C,16 || z16 | z16 | z4 C,4 F,4 F,2 F,2 | %46
w: kin, hoy- da, hoy-|da like a|Rut- ter- kin hoy-|da.|||His tongue run- neth|
 F,4 F,4 A,4 _B,4 | G,8 z4 F,4 | _B,8 A,4 F,4- | F,4 F,4 G,4 C,4 | F,4 D,4 E,4 F,4 | C,8 F,8 | %52
w: all on but- tered|fish, be-|smeared with grease|_ a- bout his|dish, a- bout his|dish, _|
 E,4 E,4 F,8 | C,8 F,4 F,4- | F,4 F,4 F,8 | C,2 C,2 F,2 F,2 E,4 D,4 | C,4 G,4 A,8 | %57
w: like a Rutt-|kin hoy- da,|_ hoy- da,|jol- ly Rut- ter- kin hoy-|da, hoy- da,|
 F,4 E,4 C,6 C,2 | F,4 E,4 C,8 || C,12 E,4 | F,4 G,4 A,4 G,4 | E,4 (D,6 E,F, G,4) |[M:3/4] C,4 C2 | %63
w: like a Rut- ter-|kin hoy- da.|Rut- ter-|kin shall bring you|all good _ _ _|luck, A|
 C4 C2 | G,4 B,2 | C4 G,2 | C3 B, A,2 | G,2 A,2 E,2 | F,2 E,2 D,2 |[M:4/2] C,8 C4 C4 | F,8 C4 D4 | %71
w: stoup of|beer up|at a|pluck, at a|pluck, at a|pluck, _ _|_ till his|brain be as|
 (C4 G,4) A,2 G,2 F,2 E,2 | D,4 G,4 C,8 | z16 | C,8 E,8 | D,8 C,8 | E,4 E,4 F,8 | C,8 F,4 F,4- | %78
w: wise _ as _ _ _|_ a duck,||as _|a duck,|like a Rutt-|kin hoy- da,|
 F,4 F,4 F,8 | C,2 C,2 F,2 F,2 E,4 D,4 | C,4 G,4 A,8 | F,4 E,4 C,6 C,2 | F,4 E,4 C,8 || %83
w: _ hoy- da,|jol- ly Rut- ter- kin hoy-|da, hoy- da,|like a Rut- ter-|kin hoy- da.|
 F,8 F,4 G,4 | A,4 _B,4 A,4 F,4 | (G,4 F,2 E,2 F,8) | F,6 C,2 F,4 C,4 | F,4 C,4 F,4 A,4 | G,8 F,8 | %89
w: When Rut- ter-|kin from board will|rise, _ _ _|he will piss a|gal- lon pot full|at twice,|
[M:3/4] F,4 F,2 | D,4 E,2 | F,6 | A,2 A,2 A,2 | _B,4 G,2 | F,3 G, A,2 | D,4 E,2 | F,3 G, A,2 | %97
w: and the|o- ver-|plus|un- der the|ta- ble|of the new|guise, _|of the new|
 G,2 F,2 G,2 |[M:4/2] F,8 E,4 E,4 | F,8 C,8 | F,4 F,8 F,4 | F,8 C,2 C,2 F,2 F,2 | %102
w: guise, _ _|_ like a|Rutt- kin|hoy- da, hoy-|da, jol- ly Rut- ter-|
"^Source is \"A General History of the Science and Practice of Music\" by Sir John Hawkins, page 370 in the1853 edition. Lyrics have been altered to follow modern editions of this poem, except that \"Rutterkin\" iscontracted to \"Ruttkin\" rather than \"Rutter\". According to Hawkins and others the song is a satire on thedrunken Flemings who came to England with Anne of Cleves on her marriage to King Henry VIII, but bothCornish and Skelton had died over a decade before that event. The OED indicates that \"rutterkin\" means \"aswaggering gallant or bully\" and that \"hoyda\" or \"heyday\" is \"an exclamation of gaiety or amusement\"." E,4 D,4 C,4 G,4 | %103
w: kin hoy- da, hoy-|
 A,8 F,4 E,4 | C,6 C,2 F,4 E,4 | C,16 |] %106
w: da, like a|Rut- ter- kin hoy-|da.|

